school/img/country/IN.svg

<svg width="13" height="12" viewBox="0 0 13 12" fill="none" xmlns="http://www.w3.org/2000/svg">
<rect x="0.25" y="0.25" width="12.5" height="11.5" rx="1.75" fill="white" stroke="#F5F5F5" stroke-width="0.5"/>
<mask id="mask0" mask-type="alpha" maskUnits="userSpaceOnUse" x="0" y="0" width="13" height="12">
<rect x="0.25" y="0.25" width="12.5" height="11.5" rx="1.75" fill="white" stroke="white" stroke-width="0.5"/>
</mask>
<g mask="url(#mask0)">
<path fill-rule="evenodd" clip-rule="evenodd" d="M0 4H13V0H0V4Z" fill="#FFA44A"/>
<path fill-rule="evenodd" clip-rule="evenodd" d="M0 12H13V8H0V12Z" fill="#1A9F0B"/>
<path d="M6.49998 7.53332C7.27137 7.53332 7.76189 6.76227 7.76189 5.99999C7.76189 5.23771 7.27137 4.46665 6.49998 4.46665C5.72859 4.46665 5.23808 5.23771 5.23808 5.99999C5.23808 6.76227 5.72859 7.53332 6.49998 7.53332Z" fill="#181A93" fill-opacity="0.15" stroke="#181A93" stroke-width="0.666667"/>
<path fill-rule="evenodd" clip-rule="evenodd" d="M6.49995 6.40004C6.6709 6.40004 6.80948 6.22095 6.80948 6.00004C6.80948 5.77912 6.6709 5.60004 6.49995 5.60004C6.32901 5.60004 6.19043 5.77912 6.19043 6.00004C6.19043 6.22095 6.32901 6.40004 6.49995 6.40004Z" fill="#181A93"/>
</g>
</svg>

<svg width="13" height="12" fill="none" xmlns="http://www.w3.org/2000/svg"><rect x=".25" y=".25" width="12.5" height="11.5" rx="1.75" fill="#fff" stroke="#F5F5F5" stroke-width=".5"/><mask id="a" maskUnits="userSpaceOnUse" x="0" y="0" width="13" height="12"><rect x=".25" y=".25" width="12.5" height="11.5" rx="1.75" fill="#fff" stroke="#fff" stroke-width=".5"/></mask><g mask="url(#a)"><path fill-rule="evenodd" clip-rule="evenodd" d="M0 4h13V0H0v4z" fill="#FFA44A"/><path fill-rule="evenodd" clip-rule="evenodd" d="M0 12h13V8H0v4z" fill="#1A9F0B"/><path d="M6.5 7.533c.771 0 1.262-.77 1.262-1.533 0-.762-.49-1.533-1.262-1.533-.771 0-1.262.77-1.262 1.533 0 .762.49 1.533 1.262 1.533z" fill="#181A93" fill-opacity=".15" stroke="#181A93" stroke-width=".667"/><path fill-rule="evenodd" clip-rule="evenodd" d="M6.5 6.4c.17 0 .31-.18.31-.4 0-.22-.14-.4-.31-.4-.171 0-.31.18-.31.4 0 .221.139.4.31.4z" fill="#181A93"/></g></svg>
